public/logos/epsPlus.svg

<?xml version="1.0" encoding="utf-8"?>
<!-- Generator: Adobe Illustrator 22.0.1, SVG Export Plug-In . SVG Version: 6.00 Build 0)  -->
<svg version="1.1" xmlns="http://www.w3.org/2000/svg" xmlns:xlink="http://www.w3.org/1999/xlink" x="0px" y="0px"
	 viewBox="0 0 1080 487" style="enable-background:new 0 0 1080 487;" xml:space="preserve">
<style type="text/css">
	.st0{display:none;}
	.st1{display:inline;}
	.st2{fillRule:evenodd;clipRule:evenodd;fill:#FFFFFF;}
	.st3{fill:none;}
	.st4{fill:#002B54;}
	.st5{fill:#002B54;stroke:#FFFFFF;stroke-width:17.0079;stroke-miterlimit:10;}
	.st6{fill:none;stroke:#002B54;stroke-width:25.5118;stroke-miterlimit:10;}
	.st7{fill:#00D9B2;}
	.st8{display:none;fill:#002B54;}
	.st9{fill:#FFFFFF;}
	.st10{fill:#FB5000;}
</style>
<g id="Capa_1" class="st0">
	<g class="st1">
		<path class="st2" d="M-1660-302c-291.6,0-528.8,237.2-528.8,528.8c0,102.6,29.1,201.1,84.5,286.6l-80.3,177
			c-7.4,16.3-4.7,35.4,6.9,49.1c8.9,10.4,21.8,16.2,35.1,16.2c4.1,0,8.2-0.5,12.2-1.6l221.3-60.7c76.4,40.9,162.1,62.4,249.1,62.4
			c291.6,0,528.8-237.2,528.8-528.8C-1131.2-64.7-1368.4-302-1660-302z M-1660,663.3c-77.2,0-153.2-20.5-219.8-59.4
			c-7.1-4.2-15.2-6.3-23.3-6.3c-4.1,0-8.2,0.5-12.2,1.6l-144.6,39.7l50.4-110.9c6.8-15.1,5.1-32.7-4.6-46.1
			c-53.9-74.7-82.3-162.8-82.3-255c0-240.7,195.8-436.4,436.5-436.4c240.7,0,436.5,195.8,436.5,436.4
			C-1223.6,467.5-1419.3,663.3-1660,663.3z"/>
		<path class="st2" d="M-1456.7,306c-22.1-13.2-51-28-77.1-17.4c-20,8.2-32.8,39.5-45.8,55.5c-6.7,8.2-14.6,9.5-24.8,5.4
			c-75.1-29.9-132.7-80.1-174.2-149.2c-7-10.7-5.8-19.2,2.7-29.2c12.5-14.7,28.3-31.5,31.6-51.4c3.4-19.9-5.9-43.1-14.1-60.8
			c-10.5-22.6-22.2-54.9-44.9-67.6c-20.8-11.8-48.3-5.2-66.8,9.9c-32,26.1-47.5,66.9-47,107.4c0.1,11.5,1.5,23,4.2,34.1
			c6.5,26.7,18.8,51.7,32.7,75.4c10.5,17.9,21.9,35.2,34.1,51.9c40.2,54.6,90.2,102,148.1,137.5c28.9,17.7,60.1,33.3,92.3,43.9
			c36.2,12,68.4,24.4,107.5,17c40.9-7.8,81.2-33.1,97.5-72.5c4.8-11.7,7.2-24.7,4.5-37C-1401.6,333.5-1436.1,318.4-1456.7,306z"/>
	</g>
</g>
<g id="Capa_3">
	<circle class="st3" cx="-779.1" cy="226.8" r="195.1"/>
	<path class="st4" d="M-96-114.7h-317.2h-292.7h-317.2c-40.3,0-73.1,32.8-73.1,73.1v536.8c0,40.3,32.8,73.1,73.1,73.1H-96
		c40.3,0,73.1-32.8,73.1-73.1V-41.6C-22.9-81.9-55.7-114.7-96-114.7z M-462-114.7 M-71.7,495.1c0,13.4-10.9,24.3-24.3,24.3h-927.1
		c-13.4,0-24.3-10.9-24.3-24.3V-41.6c0-13.4,10.9-24.3,24.3-24.3H-96c13.4,0,24.3,10.9,24.3,24.3V495.1z"/>
	<path class="st4" d="M-779.1,446.3c-121,0-219.5-98.5-219.5-219.5S-900.1,7.2-779.1,7.2s219.5,98.5,219.5,219.5
		S-658,446.3-779.1,446.3z M-779.1,56c-94.2,0-170.7,76.6-170.7,170.7s76.6,170.7,170.7,170.7s170.7-76.6,170.7-170.7
		S-684.9,56-779.1,56z"/>
	<path class="st4" d="M-705.9,190.2h-36.6v-36.6c0-20.2-16.4-36.6-36.6-36.6c-20.2,0-36.6,16.4-36.6,36.6v36.6h-36.6
		c-20.2,0-36.6,16.4-36.6,36.6s16.4,36.6,36.6,36.6h36.6v36.6c0,20.2,16.4,36.6,36.6,36.6c20.2,0,36.6-16.4,36.6-36.6v-36.6h36.6
		c20.2,0,36.6-16.4,36.6-36.6S-685.7,190.2-705.9,190.2z"/>
	<path class="st4" d="M-144.9,104.8H-462c-13.5,0-24.4-10.9-24.4-24.4S-475.4,56-462,56h317.1c13.5,0,24.4,10.9,24.4,24.4
		S-131.4,104.8-144.9,104.8z"/>
	<path class="st4" d="M-388.8,202.4H-462c-13.5,0-24.4-10.9-24.4-24.4c0-13.5,10.9-24.4,24.4-24.4h73.2c13.5,0,24.4,10.9,24.4,24.4
		S-375.3,202.4-388.8,202.4z"/>
	<path class="st4" d="M-144.9,202.4h-146.4c-13.5,0-24.4-10.9-24.4-24.4c0-13.5,10.9-24.4,24.4-24.4h146.4
		c13.5,0,24.4,10.9,24.4,24.4S-131.4,202.4-144.9,202.4z"/>
	<path class="st4" d="M-144.9,299.9H-462c-13.5,0-24.4-10.9-24.4-24.4c0-13.5,10.9-24.4,24.4-24.4h317.1c13.5,0,24.4,10.9,24.4,24.4
		C-120.5,289-131.4,299.9-144.9,299.9z"/>
	<path class="st4" d="M-193.7,397.5H-462c-13.5,0-24.4-10.9-24.4-24.4s10.9-24.4,24.4-24.4h268.3c13.5,0,24.4,10.9,24.4,24.4
		S-180.2,397.5-193.7,397.5z"/>
</g>
<g id="Capa_4">
	<g>
		<rect x="-2180.8" y="-82.2" class="st5" width="1045.7" height="836.5"/>
		<path class="st5" d="M-1135.1-82.2h-1045.7v209.1c0,77,62.4,139.4,139.4,139.4h766.8c77,0,139.4-62.4,139.4-139.4V-82.2z"/>
		<path class="st6" d="M-1936.8-82.2v-139.4c0-38.5,31.2-69.7,69.7-69.7h418.3c38.5,0,69.7,31.2,69.7,69.7v139.4"/>
		<path class="st7" d="M-1658,405.8L-1658,405.8c-38.5,0-69.7-31.2-69.7-69.7V196.6c0-38.5,31.2-69.7,69.7-69.7l0,0
			c38.5,0,69.7,31.2,69.7,69.7V336C-1588.2,374.6-1619.4,405.8-1658,405.8z"/>
		<line class="st8" x1="-1588.2" y1="266.3" x2="-1727.7" y2="266.3"/>
	</g>
</g>
<g id="Capa_5">
	<g id="EPS_Plus">
		<path class="st9" d="M579.3,94.3v32.1h77.1v32.3h-77.1v32.6h88v32.3H538.2V61.9h126.6v32.3H579.3z"/>
		<path class="st9" d="M756,61.9c41.3,0,65.1,20.3,65.1,56.4c0,37.9-23.8,59.8-65.1,59.8h-29.3v45.5h-41.1V61.9H756z M726.7,145.8
			h27.3c18,0,28.4-9,28.4-26.1c0-16.9-10.4-25.4-28.4-25.4h-27.3V145.8z"/>
		<path class="st9" d="M960.2,78.1l-15.5,32.1c-17.1-9.9-38.6-16.9-51.7-16.9c-10.6,0-17.8,3.9-17.8,11.8c0,27.9,85.5,12,85.5,70.4
			c0,32.3-28.6,49.4-64.7,49.4c-27,0-54.7-10.2-73.9-25.9l15.9-31.6c16.6,14.6,41.6,24.3,58.4,24.3c12.9,0,21-4.9,21-14.1
			c0-28.6-85.5-11.5-85.5-68.8c0-29.8,25.6-48.7,64.4-48.7C919.7,60.1,943.5,67.2,960.2,78.1z"/>
		<path class="st10" d="M607.3,254.1c40,0,63.1,19.9,63.1,54.3c0,35.8-23.1,56.4-63.1,56.4H565v51h-18.5V254.1H607.3z M565,346.9
			h41.6c29.1,0,46-12.9,46-38.1c0-24.5-16.9-37-46-37H565V346.9z"/>
		<path class="st10" d="M782.1,398.2v17.6h-89.4V254.1h18.5v144.1H782.1z"/>
		<path class="st10" d="M935.9,349.2c0,42-25.4,67.4-67.7,67.4c-42.5,0-68.1-25.4-68.1-67.4v-95.2h18.5v95.2
			c0,31.4,18.9,49.7,49.7,49.7c30.7,0,49.2-18.2,49.2-49.7v-95.2h18.5V349.2z"/>
		<path class="st10" d="M1072.2,268.4l-7.9,17.3c-14.6-9.7-31.6-13.6-44.6-13.6c-20.8,0-34.4,7.9-34.4,21.5
			c0,41.6,91,19.9,90.8,78.5c0,27-23.8,44.3-58.4,44.3c-23.6,0-46.7-10.2-61.9-24.7l8.3-16.6c15,14.6,35.6,22.9,53.8,22.9
			c23.3,0,37.9-9.5,37.9-24.9c0.2-42.5-90.8-19.9-90.8-77.8c0-25.4,22.4-41.8,55.9-41.8C1039.6,253.4,1058.8,259.4,1072.2,268.4z"/>
		<path class="st10" d="M270.1,154.4c0,24.4,0,48.8,0,73.2c0,12.5,10.1,20.1,22.2,17c7.1-1.8,11.7-7.3,12.1-14.6c0-0.2,0-0.4,0-0.5
			c0.3-47.3,1-94.7,0.8-142c-0.2-44.4-30.2-62.8-61.4-68.3c-12.9-2.3-25.7-1.7-38.3,2c-28.4,8.3-46.7,31-47.9,60.5
			c-0.6,14.9-0.4,29.8-0.1,44.6c0.3,12.9,10.8,20.1,23,16.4c7.4-2.3,11.7-8.1,11.5-16.8c-0.2-9.9-1-19.7-1.1-29.6
			c-0.1-5.3,0.4-10.7,1.2-16c2-13.7,9.8-22.3,23.5-25.3c13.3-2.9,26.4-2.8,39,2.7c10,4.4,15.4,11.9,15.4,23
			C270.1,105.2,270.1,129.8,270.1,154.4z"/>
		<path class="st9" d="M192.2,308.5c0-22.4,0.1-44.8,0-67.3c-0.1-13.6-12-21.6-24.5-16.5c-5.4,2.2-8.8,6-9.7,11.9
			c-0.3,2.3-0.5,4.6-0.5,7c-0.4,39.3-0.8,78.5-1,117.8c0,8.4,0.8,16.8,2,25.2c1.7,12.1,7.6,22.2,16.3,30.8
			c27.3,27,76.6,30,106.9,6.5c14-10.8,21.8-25,22.7-42.7c0.6-10.7,0.8-21.5,0.8-32.2c0-11.4-6.6-18.4-17.2-18.3
			c-10.7,0-17.6,7.2-17.5,18.8c0,7.2,0.7,14.3,0.5,21.5c-0.5,19.3-9,29.5-28,33c-12.2,2.3-24.3,1.3-35.6-4.6
			c-9.9-5.1-15.3-13.1-15.2-24.6C192.3,352.7,192.2,330.6,192.2,308.5z"/>
		<path class="st10" d="M360.1,196.9c7,0,14,0,21,0c20.6,0,32.1,9.6,35.1,30c1.6,10.4,0.6,20.8-3.3,30.7
			c-4.3,10.9-11.7,17.4-23.9,17.4c-17,0-34.1,0-51.1,0.1c-9.2,0.1-14.9,4.8-16.7,13.6c-2.3,11.1,5,20.6,16.4,20.9
			c14.7,0.4,29.4,1.2,44.1,1c45.1-0.6,75.7-37.1,69.4-81.9c-2.2-15.3-6.6-29.7-15.8-42.3c-11-15-26.1-23.2-44.4-23.9
			c-20-0.8-40.2-0.4-60.2,0c-9.7,0.2-15.7,7.5-15.5,17.7c0.1,9.8,6.2,16.4,15.9,16.7C340.7,197.1,350.4,196.9,360.1,196.9
			C360.1,196.9,360.1,196.9,360.1,196.9z"/>
		<path class="st9" d="M101.1,196.8c8.6,0,17.2,0.1,25.8,0c11.1-0.1,17.9-6.6,17.9-17c0-10.4-6.8-17.2-17.7-17.4
			c-15.2-0.4-30.5-1.2-45.7-1c-48,0.4-79.6,38.2-72.5,85.9c2.4,16,7.5,30.6,18.3,42.8c12.8,14.5,29.6,19.8,48.1,20.3
			c16.3,0.4,32.6-0.3,48.9-1c8.9-0.3,14.8-7.9,14.6-17.4c-0.2-9.6-6.3-16.5-15.4-16.6c-14.2-0.2-28.3-0.1-42.5,0.1
			c-24.3,0.3-36.6-10.6-38-35c-0.4-6.7,0.5-13.7,2.3-20.1c4.6-16.2,14.7-23.4,31.6-23.5C85,196.8,93.1,196.8,101.1,196.8z"/>
		<path class="st10" d="M270,292.6c0,10.3,6.6,17.1,16.5,17.2c9.9,0,16.7-6.8,16.8-17c0.1-10.5-6.8-17.6-16.8-17.5
			C276.7,275.4,270,282.4,270,292.6z"/>
		<path class="st10" d="M191.3,179.8c0-10.3-6.6-17.3-16.4-17.4c-9.7-0.1-16.7,7.1-16.8,17.1c-0.1,10.2,6.6,17.2,16.5,17.3
			C184.6,196.8,191.3,190.1,191.3,179.8z"/>
		<rect x="496" y="14.3" class="st9" width="11.1" height="461.9"/>
	</g>
</g>
<g id="lineas_logos">
</g>
<g id="Capa_2">
</g>
</svg>

<svg width="1080" height="487" viewBox="0 0 1080 487" fill="none" xmlns="http://www.w3.org/2000/svg">
<g clip-path="url(#clip0_902_1280)">
<path d="M579.3 94.3V126.4H656.4V158.7H579.3V191.3H667.3V223.6H538.2V61.9H664.8V94.2H579.3V94.3Z" fill="#002F54"/>
<path d="M756 61.9C797.3 61.9 821.1 82.2 821.1 118.3C821.1 156.2 797.3 178.1 756 178.1H726.7V223.6H685.6V61.9H756ZM726.7 145.8H754C772 145.8 782.4 136.8 782.4 119.7C782.4 102.8 772 94.3 754 94.3H726.7V145.8Z" fill="#002F54"/>
<path d="M960.2 78.1L944.7 110.2C927.6 100.3 906.1 93.3 893 93.3C882.4 93.3 875.2 97.2 875.2 105.1C875.2 133 960.7 117.1 960.7 175.5C960.7 207.8 932.1 224.9 896 224.9C869 224.9 841.3 214.7 822.1 199L838 167.4C854.6 182 879.6 191.7 896.4 191.7C909.3 191.7 917.4 186.8 917.4 177.6C917.4 149 831.9 166.1 831.9 108.8C831.9 79 857.5 60.1 896.3 60.1C919.7 60.1 943.5 67.2 960.2 78.1Z" fill="#002F54"/>
<path d="M607.3 254.1C647.3 254.1 670.4 274 670.4 308.4C670.4 344.2 647.3 364.8 607.3 364.8H565V415.8H546.5V254.1H607.3ZM565 346.9H606.6C635.7 346.9 652.6 334 652.6 308.8C652.6 284.3 635.7 271.8 606.6 271.8H565V346.9Z" fill="#FB5000"/>
<path d="M782.1 398.2V415.8H692.7V254.1H711.2V398.2H782.1Z" fill="#FB5000"/>
<path d="M935.9 349.2C935.9 391.2 910.5 416.6 868.2 416.6C825.7 416.6 800.1 391.2 800.1 349.2V254H818.6V349.2C818.6 380.6 837.5 398.9 868.3 398.9C899 398.9 917.5 380.7 917.5 349.2V254H936V349.2H935.9Z" fill="#FB5000"/>
<path d="M1072.2 268.4L1064.3 285.7C1049.7 276 1032.7 272.1 1019.7 272.1C998.9 272.1 985.3 280 985.3 293.6C985.3 335.2 1076.3 313.5 1076.1 372.1C1076.1 399.1 1052.3 416.4 1017.7 416.4C994.1 416.4 971 406.2 955.8 391.7L964.1 375.1C979.1 389.7 999.7 398 1017.9 398C1041.2 398 1055.8 388.5 1055.8 373.1C1056 330.6 965 353.2 965 295.3C965 269.9 987.4 253.5 1020.9 253.5C1039.6 253.4 1058.8 259.4 1072.2 268.4Z" fill="#FB5000"/>
<path d="M270.1 154.4C270.1 178.8 270.1 203.2 270.1 227.6C270.1 240.1 280.2 247.7 292.3 244.6C299.4 242.8 304 237.3 304.4 230C304.4 229.8 304.4 229.6 304.4 229.5C304.7 182.2 305.4 134.8 305.2 87.5C305 43.1 275 24.7 243.8 19.2C230.9 16.9 218.1 17.5 205.5 21.2C177.1 29.5 158.8 52.2 157.6 81.7C157 96.6 157.2 111.5 157.5 126.3C157.8 139.2 168.3 146.4 180.5 142.7C187.9 140.4 192.2 134.6 192 125.9C191.8 116 191 106.2 190.9 96.3C190.8 91 191.3 85.6 192.1 80.3C194.1 66.6 201.9 58 215.6 55C228.9 52.1 242 52.2 254.6 57.7C264.6 62.1 270 69.6 270 80.7C270.1 105.2 270.1 129.8 270.1 154.4Z" fill="#FB5000"/>
<path d="M192.2 308.5C192.2 286.1 192.3 263.7 192.2 241.2C192.1 227.6 180.2 219.6 167.7 224.7C162.3 226.9 158.9 230.7 158 236.6C157.7 238.9 157.5 241.2 157.5 243.6C157.1 282.9 156.7 322.1 156.5 361.4C156.5 369.8 157.3 378.2 158.5 386.6C160.2 398.7 166.1 408.8 174.8 417.4C202.1 444.4 251.4 447.4 281.7 423.9C295.7 413.1 303.5 398.9 304.4 381.2C305 370.5 305.2 359.7 305.2 349C305.2 337.6 298.6 330.6 288 330.7C277.3 330.7 270.4 337.9 270.5 349.5C270.5 356.7 271.2 363.8 271 371C270.5 390.3 262 400.5 243 404C230.8 406.3 218.7 405.3 207.4 399.4C197.5 394.3 192.1 386.3 192.2 374.8C192.3 352.7 192.2 330.6 192.2 308.5Z" fill="#002F54"/>
<path d="M360.1 196.9C367.1 196.9 374.1 196.9 381.1 196.9C401.7 196.9 413.2 206.5 416.2 226.9C417.8 237.3 416.8 247.7 412.9 257.6C408.6 268.5 401.2 275 389 275C372 275 354.9 275 337.9 275.1C328.7 275.2 323 279.9 321.2 288.7C318.9 299.8 326.2 309.3 337.6 309.6C352.3 310 367 310.8 381.7 310.6C426.8 310 457.4 273.5 451.1 228.7C448.9 213.4 444.5 199 435.3 186.4C424.3 171.4 409.2 163.2 390.9 162.5C370.9 161.7 350.7 162.1 330.7 162.5C321 162.7 315 170 315.2 180.2C315.3 190 321.4 196.6 331.1 196.9C340.7 197.1 350.4 196.9 360.1 196.9Z" fill="#FB5000"/>
<path d="M101.1 196.8C109.7 196.8 118.3 196.9 126.9 196.8C138 196.7 144.8 190.2 144.8 179.8C144.8 169.4 138 162.6 127.1 162.4C111.9 162 96.6 161.2 81.4 161.4C33.4 161.8 1.80002 199.6 8.90002 247.3C11.3 263.3 16.4 277.9 27.2 290.1C40 304.6 56.8 309.9 75.3 310.4C91.6 310.8 107.9 310.1 124.2 309.4C133.1 309.1 139 301.5 138.8 292C138.6 282.4 132.5 275.5 123.4 275.4C109.2 275.2 95.1 275.3 80.9 275.5C56.6 275.8 44.3 264.9 42.9 240.5C42.5 233.8 43.4 226.8 45.2 220.4C49.8 204.2 59.9 197 76.8 196.9C85 196.8 93.1 196.8 101.1 196.8Z" fill="#002F54"/>
<path d="M270 292.6C270 302.9 276.6 309.7 286.5 309.8C296.4 309.8 303.2 303 303.3 292.8C303.4 282.3 296.5 275.2 286.5 275.3C276.7 275.4 270 282.4 270 292.6Z" fill="#FB5000"/>
<path d="M191.3 179.8C191.3 169.5 184.7 162.5 174.9 162.4C165.2 162.3 158.2 169.5 158.1 179.5C158 189.7 164.7 196.7 174.6 196.8C184.6 196.8 191.3 190.1 191.3 179.8Z" fill="#FB5000"/>
<path d="M507.1 14.3H496V476.2H507.1V14.3Z" fill="#002F54"/>
</g>
<defs>
<clipPath id="clip0_902_1280">
<rect width="1080" height="487" fill="white"/>
</clipPath>
</defs>
</svg>
